X: 18731
T: Ice On The Water
R: waltz
M: 3/4
K: Gmajor
D2|"G".B2B3B|"F".c2d3d|"Am"cB AG FG|"G"BG D3 D|"G".B2 B3 B|
"F".c2 d4|"Am"cB AG FG|"D"A4 D2|"G".B2 B3 B|"F".c2 d3d|
"Am"cB AG FG|"G"BG D3D|"F".=F2 F3 F|"F".G2 A3c|"D"_BA GF DF|"G"G4:|
|:d2|"G"g2 g2 ga|"D"gfd2 de|"F"=fe fa gf|"C"ecG2G2|
"G"g2 g2 ga|"D"gfd2 de|"F"=fe dc Bc|"D"d4 d2|
"G"g2 g2 ga|"D"gfd2 de|"F"=fe fa gf|"Am"ecG2G2|
"EbMaj7"_B3 A Bd|"EbMaj7"c_B A2c2|"D"_BA GF DF|"G"G4:|

